X:1
T:Henry John Gauntlett
T:Hereford
%%score { ( 1 2 ) | ( 3 4 ) }
L:1/8
M:4/4
K:Eb
V:1 treble 
V:2 treble 
V:3 bass 
V:4 bass 
V:1
 B2 | G2 A2 B2 B2 | E2 F2 G2 B2 | c2 B2 e2 e2 | B6 B2 | G2 c2 B2 e2 | d2 c2 B2 A2 | A2 GF F2 F2 | %8
 E6 G2 | F2 GA G2 F2 | c2 BA G2 G2 | e2 d2 c3 c | d6 e2 | G2 c2 B2 B2 | E2 A2 G2 G2 | G2 GA F2 F2 | %16
 E6 | E4 E4 |] %18
V:2
 E2 | E2 E2 D2 D2 | E2 D2 E2 G2 | F2 F2 G2 E2 | F6 F2 | E2 D2 E2 E2 | G2 A2 G2 E2 | F2 E2 E2 D2 | %8
 E6 G2 | F2 GA G2 F2 | c2 BA G2 G2 | G2 G2 G2 F2 | D6 G2 | E2 D2 E2 E2 | E2 D2 E2 F2 | %15
 E2 E2 E2 D2 | E6 | C4 B,4 |] %18
V:3
 G,2 | B,2 C2 F,2 G,2 | G,2 B,2 B,2 G,2 | =A,2 B,2 B,2 A,2 | B,6 B,2 | B,2 A,2 E2 C2 | %6
 D2 D2 E2 E,2 | B,2 B,C F,G, A,2 | G,6 G,2 | F,2 G,A, G,2 F,2 | C2 B,A, G,2 E2 | C2 D2 E2 C2 | %12
 =B,6 _B,2 | B,2 A,2 G,2 B,2 | C2 A,2 B,2 =B,2 | C2 C2 F,G, A,2 | G,6 | A,4 G,4 |] %18
V:4
 E,2 | E,2 C,2 B,,2 G,,2 | C,2 B,,2 E,2 E,2 | E,2 D,2 C,2 C,2 | B,,6 D,2 | E,2 F,2 G,2 C2 | %6
 B,2 F,2 G,2 C,2 | D,2 E,A,, B,,2 B,,2 | E,6 G,2 | F,2 G,A, G,2 F,2 | C2 B,A, G,2 C,2 | %11
 C2 B,2 A,3 A, | G,6 E,2 | E,2 F,2 G,2 G,2 | A,2 F,2 E,2 D,2 | C,2 A,,2 B,,2 B,,2 | E,6 | %17
 A,,4 E,4 |] %18

